X: 1
T:Bridget Bradley
M:6/8
L:1/8
Q:80
C:Harry Stevenson
S:Jig
K:HP
|: a|
{fg}fd{c}d{g}edB|
{g}ABd{gdG}d2e|
{g}faf{g}def|  !
{a}ge{A}e{g}efg|
{fg}fd{c}d{g}edB|
{g}ABd{gdG}d2e|  !
{g}fa{g}agec|
{g}ed{c}d{gdc}d2:| |:
f|  !
{ag}a2f{Gdc}d2B|
{g}ABd{g}fd{c}d|
{ag}a2f{g}def|  !
{a}ge{A}e{g}efg|
{ag}a2f{Gdc}d2B|
{g}ABd{g}fd{c}d|  !
{g}fa{g}agec|
{g}ed{c}d{gdc}d2:| |:
B|  !
{g}Ad{c}d{g}fd{c}d|
{g}fge{g}fd{c}d|
{g}Ad{c}d{g}def|  !
{a}ge{A}e{g}edB|
{g}Ad{c}d{g}fd{c}d|
{g}fge{g}fd{c}d|  !
{g}fa{g}agec|
{g}ed{c}d{gdc}d2:| |:
f|  !
aA{G}A{g}fd{c}d|
{a}gA{G}A{g}ec{G}c|
aA{G}A{g}def|  !
{a}ge{A}e{g}efg|
aA{G}A{g}fd{c}d|
{a}gA{G}A{g}ec{G}c|  !
{g}fa{g}agec|
{g}ed{c}d{gdc}d2:|
